!!!COM: Bach, Johann Sebastian
!!!CDT: 1685/3//-1750/7/28/
!!!OTL@@DE: Sei Lob und Ehr' dem hoechsten Gut
!!!AGN: 4-Part Chorale
!!!SCT: BH 248
!!!SCT: BWV 117
**harm	**root	**kern	**kern	**kern	**kern
!	!	!bass	!tenor	!alto	!soprno
*	*Iorgan	*Iorgan	*Iorgan	*Iorgan	*Iorgan
*M4/4	*M4/4	*M4/4	*M4/4	*M4/4	*M4/4
*met(c)	*met(c)	*met(c)	*met(c)	*met(c)	*met(c)
*MM60	*MM60	*MM60	*MM60	*MM60	*MM60
*k[b-]	*k[b-]	*k[b-]	*k[b-]	*k[b-]	*k[b-]
*F:	*F:	*F:	*F:	*F:	*F:
*>[A,A,B]	*>[A,A,B]	*>[A,A,B]	*>[A,A,B]	*>[A,A,B]	*>[A,A,B]
*>A	*>A	*>A	*>A	*>A	*>A
Vb	4DD	4E	8c	4g	4cc
.	.	.	8B-	.	.
=1	=1	=1	=1	=1	=1
I	4GG	4F	4A	4f	4cc
V	4DD	4C	4G	8f	4cc
.	.	.	.	8e	.
I	4GG	4FF	4A	4f	8cc
.	.	.	.	.	8dd
-VIIb	8FF	8GG	4G	8B-	4ee-
viio7/IV	8BB	8AA	.	8c	.
=2	=2	=2	=2	=2	=2
I/IV	4CC	4BB-	8F	8.d	4dd
.	.	.	8B-	.	.
.	.	.	.	16e-	.
V/IV	4GG	4FF	8B-	4f	4cc
.	.	.	8A	.	.
I/IV;	4CC;	4BB-;	4d;	4f;	4b-;
V	4DD	4E	4c	4g	4cc
=3	=3	=3	=3	=3	=3
I	4GG	4.F	8c	4f	8a
.	.	.	8B-	.	8g
I	8GG	.	8A	4c	8f
Vb	8DD	8E	8G	.	8g
vi	4EE	8D	4F	8f	4a
.	.	8E	.	8e	.
V7d/V	4AA	8F	4G	4d	4b
.	.	8G	.	.	.
=4	=4	=4	=4	=4	=4
Vb	8DD	8E	8G	8g	4cc
V	8DD	8C	4c	8e	.
V7/V	4AA	4G	.	4f	4dd
.	.	.	8B	.	.
V;	4DD;	4C;	4c;	4e;	4cc;
=:|!	=:|!	=:|!	=:|!	=:|!	=:|!
*>B	*>B	*>B	*>B	*>B	*>B
I	4GG	8F	4c	4a	4cc
.	.	8G	.	.	.
=5	=5	=5	=5	=5	=5
Ib	4GG	8A	8c	4a	4ff
.	.	8B	8d	.	.
V	4DD	4c	8e	8g	4ee
.	.	.	8f	8a	.
V/V	4AA	4G	8g	4b	4dd
.	.	.	8f	.	.
Vb/iii	4FF#	4G#	8e	4b	4ee
.	.	.	8d	.	.
!!linebreak: 2
=6	=6	=6	=6	=6	=6
Ib	4GG	8A	4c	4cc	8ff
.	.	8F	.	.	8ee
V/V	4AA	4G	4B	8g	4dd
.	.	.	.	8f	.
V;	4DD;	4C;	4G;	4e;	4cc;
I	4GG	8F	4A	4f	4cc
.	.	8E	.	.	.
=7	=7	=7	=7	=7	=7
vi	4EE	8D	8A	4f	4ff
.	.	8C	8B-	.	.
Ib	4GG	8BB-	4c	4f	4cc
.	.	8AA	.	.	.
IV	4CC	8BB-	4B-	4f	4dd
.	.	8C	.	.	.
vi	4EE	4D	8F	4f	8a
.	.	.	8d	.	8b-
=8	=8	=8	=8	=8	=8
Vb	8DD	8E	8c	8g	4cc
viio/V/V	8GG#	8F#	8A	8a	.
V/V	4AA	4G	8B-	8d	4b-
.	.	.	16d	8g	.
.	.	.	16c#	.	.
VI;	4EE;	4D;	4d;	4f#;	4a;
I	4GG	4F	4c	4f	4a
=9	=9	=9	=9	=9	=9
Vb	4DD	4E	4c	4g	8g
.	.	.	.	.	8a
IVb	8CC	8D	4d	8f	4b-
viio7	8FF#	8E	.	8g	.
I	4GG	4F	4c	8a	4a
.	.	.	.	8f	.
iib	4AA	4BB-	8B-	4d	4g
.	.	.	8A	.	.
=10	=10	=10	=10	=10	=10
Vb/V	4AA	4BB	2G	4d	4d
V	4DD	4C	.	4c	4e
I;	4GG;	4FF;	4A;	4c;	4f;
==	==	==	==	==	==
*-	*-	*-	*-	*-	*-
!!!ONB: Near duplicate with erk354.krn
!!chor2scor: -l 2 -s 0.6 -o %b.pmx
!!!YEC: Copyright 1994, David Huron
!!!YEC: Changes/Additions 2001 by Craig Stuart Sapp
!!!YEN: United States of America
!!!SMA: 371 Bach Chorales, edited by Ludwig Erk, C.F. Peters
!!!PDT: 1850, 1865
!!!ONB: Harmony and Root analysis done manually 
